build/bank/Citibank.svg

<svg xmlns="http://www.w3.org/2000/svg" fill="none" viewBox="0 0 40 40" focusable="false"><path d="M0 0H40V40H0z"/><path fill="#F4F5F6" d="M1 12.4C1 10.1598 1 9.03969 1.43597 8.18404C1.81947 7.43139 2.43139 6.81947 3.18404 6.43597C4.03969 6 5.15979 6 7.4 6L32.6 6C34.8402 6 35.9603 6 36.816 6.43597C37.5686 6.81947 38.1805 7.43139 38.564 8.18404C39 9.03969 39 10.1598 39 12.4L39 27.6C39 29.8402 39 30.9603 38.564 31.816C38.1805 32.5686 37.5686 33.1805 36.816 33.564C35.9603 34 34.8402 34 32.6 34L7.4 34C5.15979 34 4.03969 34 3.18404 33.564C2.43139 33.1805 1.81947 32.5686 1.43597 31.816C1 30.9603 1 29.8402 1 27.6L1 12.4Z"/><path fill="#003B70" d="M16.165 23.3027C15.6201 23.8579 14.9557 24.1848 14.3058 24.1848 12.9491 24.1848 11.9645 23.1672 11.9645 21.7631 11.9645 20.3615 12.9491 19.3423 14.3058 19.3423 14.9557 19.3423 15.5863 19.6378 16.1312 20.1945L17.0375 19.1732C16.3119 18.3159 15.4181 17.8699 14.3479 17.8699 13.2739 17.8699 12.2922 18.2313 11.5847 18.8831 10.8159 19.5889 10.4102 20.5844 10.4102 21.7631 10.4102 22.9412 10.8159 23.939 11.5847 24.6451 12.2922 25.2999 13.2739 25.6594 14.3479 25.6594 15.4181 25.6594 16.2886 25.2422 17.0142 24.3845L16.165 23.3027ZM17.9191 25.5158 19.4603 25.5158 19.4603 17.9922 17.9191 17.9922 17.9191 25.5158Z"/><path fill="#003B70" d="M17.9191 25.5158 19.4603 25.5158 19.4603 17.9922 17.9191 17.9922 17.9191 25.5158ZM25.4973 23.8799C25.0862 24.1303 24.7034 24.2561 24.3599 24.2561 23.8619 24.2561 23.6368 23.9933 23.6368 23.4079L23.6368 19.4159 25.2065 19.4159 25.2065 17.9991 23.6368 17.9991 23.6368 15.6581 22.1262 16.4665 22.1262 17.9991 20.8231 17.9991 20.8231 19.4159 22.1262 19.4159 22.1262 23.6626C22.1262 24.8196 22.8116 25.61 23.8347 25.6306 24.5294 25.6442 24.9481 25.4372 25.2025 25.286L25.4973 23.8799Z"/><path fill="#003B70" d="M25.4973 23.8799C25.0862 24.1303 24.7034 24.2561 24.3599 24.2561 23.8619 24.2561 23.6368 23.9933 23.6368 23.4079L23.6368 19.4159 25.2065 19.4159 25.2065 17.9991 23.6368 17.9991 23.6368 15.6581 22.1262 16.4665 22.1262 17.9991 20.8231 17.9991 20.8231 19.4159 22.1262 19.4159 22.1262 23.6626C22.1262 24.8196 22.8116 25.61 23.8347 25.6306 24.5294 25.6442 24.9481 25.4372 25.2025 25.286L25.4973 23.8799ZM26.7738 25.5158 28.316 25.5158 28.316 17.9922 26.7738 17.9922 26.7738 25.5158Z"/><path fill="#003B70" d="M26.7738 25.5158L28.316 25.5158L28.316 17.9922L26.7738 17.9922L26.7738 25.5158Z"/><path fill="#003B70" fill-rule="evenodd" d="M29.2391 16.6573C27.8284 14.6589 25.4854 13.4667 23.1016 13.4667C20.7188 13.4667 18.3754 14.6589 16.9668 16.6573L16.8947 16.7601L18.671 16.7601C19.88 15.5121 21.4781 14.8309 23.1016 14.8309C24.7252 14.8309 26.3032 15.4908 27.5146 16.7388L29.3103 16.7601L29.2391 16.6573Z"/><path fill="#D9261C" fill-rule="evenodd" d="M29.2391 16.6573C27.8284 14.6589 25.4854 13.4667 23.1016 13.4667C20.7188 13.4667 18.3754 14.6589 16.9668 16.6573L16.8947 16.7601L18.671 16.7601C19.88 15.5121 21.4781 14.8309 23.1016 14.8309C24.7252 14.8309 26.3032 15.4908 27.5146 16.7388L29.3103 16.7601L29.2391 16.6573Z"/></svg>

<svg xmlns="http://www.w3.org/2000/svg" fill="none" viewBox="0 0 40 40" focusable="false"><path fill="none" d="M0 0h40v40H0z"/><path fill="#F4F5F6" d="M1 12.4c0-2.25 0-3.37.43-4.22a4 4 0 0 1 1.75-1.75C4.03 6 5.15 6 7.4 6h25.19c2.25 0 3.37 0 4.22.43a4 4 0 0 1 1.75 1.75c.44.85.44 1.97.44 4.22v15.2c0 2.24 0 3.36-.44 4.21a4 4 0 0 1-1.75 1.75c-.85.44-1.97.44-4.22.44H7.4c-2.25 0-3.37 0-4.22-.44a4 4 0 0 1-1.75-1.75C1 30.96 1 29.84 1 27.6z"/><path fill="#003B70" d="M16.16 23.3c-.54.55-1.21.88-1.86.88-1.36 0-2.34-1.02-2.34-2.42s.98-2.42 2.34-2.42c.65 0 1.28.29 1.83.85l.9-1.02c-.72-.86-1.62-1.31-2.69-1.31s-2.05.37-2.76 1.02c-.77.7-1.17 1.7-1.17 2.88s.4 2.17 1.17 2.88c.71.65 1.69 1.01 2.76 1.01s1.94-.41 2.67-1.27zM17.91 25.51h1.55v-7.52h-1.55zM25.49 23.87c-.41.26-.79.38-1.14.38-.49 0-.72-.26-.72-.85v-3.99h1.57v-1.42h-1.57v-2.34l-1.51.81v1.53h-1.3v1.42h1.3v4.25c0 1.15.69 1.95 1.71 1.97a2.5 2.5 0 0 0 1.37-.35zM26.77 25.51h1.54v-7.52h-1.54z"/><path fill="#D9261C" fill-rule="evenodd" d="M29.23 16.65c-1.41-2-3.75-3.19-6.13-3.19-2.39 0-4.73 1.19-6.14 3.19l-.07.11h1.78c1.2-1.25 2.8-1.93 4.43-1.93 1.62 0 3.2.66 4.41 1.9l1.8.03z"/></svg>
